public/build/img/sistema/editar-bl.svg

<svg width="20" height="20" viewBox="0 0 20 20" fill="none" xmlns="http://www.w3.org/2000/svg">
<path d="M18.4219 0.848633C17.5664 -0.00683595 16.1836 -0.00683595 15.3281 0.848633L14.1523 2.02051L17.9766 5.84473L19.1523 4.66895C20.0078 3.81348 20.0078 2.43066 19.1523 1.5752L18.4219 0.848633ZM6.73437 9.44238C6.49609 9.68066 6.3125 9.97363 6.20703 10.2979L5.05078 13.7666C4.9375 14.1025 5.02734 14.4736 5.27734 14.7275C5.52734 14.9814 5.89844 15.0674 6.23828 14.9541L9.70703 13.7979C10.0273 13.6885 10.3203 13.5088 10.5625 13.2705L17.0977 6.73145L13.2695 2.90332L6.73437 9.44238V9.44238ZM3.75 2.50098C1.67969 2.50098 0 4.18066 0 6.25098V16.251C0 18.3213 1.67969 20.001 3.75 20.001H13.75C15.8203 20.001 17.5 18.3213 17.5 16.251V12.501C17.5 11.8096 16.9414 11.251 16.25 11.251C15.5586 11.251 15 11.8096 15 12.501V16.251C15 16.9424 14.4414 17.501 13.75 17.501H3.75C3.05859 17.501 2.5 16.9424 2.5 16.251V6.25098C2.5 5.55957 3.05859 5.00098 3.75 5.00098H7.5C8.19141 5.00098 8.75 4.44238 8.75 3.75098C8.75 3.05957 8.19141 2.50098 7.5 2.50098H3.75Z" fill="white"/>
</svg>

<svg width="20" height="20" fill="none" xmlns="http://www.w3.org/2000/svg"><path d="M18.422.849a2.186 2.186 0 00-3.094 0L14.152 2.02l3.825 3.824 1.175-1.176a2.185 2.185 0 000-3.094l-.73-.726zM6.734 9.442a2.158 2.158 0 00-.527.856l-1.156 3.469a.942.942 0 00.226.96.93.93 0 00.961.227l3.469-1.156c.32-.11.613-.29.855-.527l6.536-6.54-3.828-3.828-6.536 6.54zM3.75 2.501C1.68 2.501 0 4.181 0 6.251v10c0 2.07 1.68 3.75 3.75 3.75h10c2.07 0 3.75-1.68 3.75-3.75v-3.75a1.25 1.25 0 10-2.5 0v3.75a1.25 1.25 0 01-1.25 1.25h-10a1.25 1.25 0 01-1.25-1.25v-10c0-.691.559-1.25 1.25-1.25H7.5a1.25 1.25 0 100-2.5H3.75z" fill="#fff"/></svg>
